public/assets/imgs/icons/instagram-blue.svg

<svg width="22" height="22" viewBox="0 0 22 22" fill="none" xmlns="http://www.w3.org/2000/svg">
<path fill-rule="evenodd" clip-rule="evenodd" d="M6.96724 2H15.0325C17.7717 2 20.0001 4.22841 20 6.96735V15.0327C20 17.7716 17.7717 20 15.0325 20H6.96724C4.22831 20 2 17.7717 2 15.0327V6.96735C2 4.22841 4.22831 2 6.96724 2ZM15.0326 18.403C16.8911 18.403 18.4031 16.8911 18.4031 15.0326H18.403V6.96735C18.403 5.10903 16.891 3.59705 15.0325 3.59705H6.96724C5.10892 3.59705 3.59705 5.10903 3.59705 6.96735V15.0326C3.59705 16.8911 5.10892 18.4031 6.96724 18.403H15.0326ZM6.28571 11.0001C6.28571 8.40055 8.4005 6.28571 11 6.28571C13.5995 6.28571 15.7143 8.40055 15.7143 11.0001C15.7143 13.5996 13.5995 15.7143 11 15.7143C8.4005 15.7143 6.28571 13.5996 6.28571 11.0001ZM7.90898 11C7.90898 12.7044 9.29568 14.0909 11 14.0909C12.7043 14.0909 14.091 12.7044 14.091 11C14.091 9.29553 12.7044 7.90891 11 7.90891C9.29557 7.90891 7.90898 9.29553 7.90898 11Z" fill="#60a5fa"/>
<mask id="mask0" mask-type="alpha" maskUnits="userSpaceOnUse" x="2" y="2" width="18" height="18">
<path fill-rule="evenodd" clip-rule="evenodd" d="M6.96724 2H15.0325C17.7717 2 20.0001 4.22841 20 6.96735V15.0327C20 17.7716 17.7717 20 15.0325 20H6.96724C4.22831 20 2 17.7717 2 15.0327V6.96735C2 4.22841 4.22831 2 6.96724 2ZM15.0326 18.403C16.8911 18.403 18.4031 16.8911 18.4031 15.0326H18.403V6.96735C18.403 5.10903 16.891 3.59705 15.0325 3.59705H6.96724C5.10892 3.59705 3.59705 5.10903 3.59705 6.96735V15.0326C3.59705 16.8911 5.10892 18.4031 6.96724 18.403H15.0326ZM6.28571 11.0001C6.28571 8.40055 8.4005 6.28571 11 6.28571C13.5995 6.28571 15.7143 8.40055 15.7143 11.0001C15.7143 13.5996 13.5995 15.7143 11 15.7143C8.4005 15.7143 6.28571 13.5996 6.28571 11.0001ZM7.90898 11C7.90898 12.7044 9.29568 14.0909 11 14.0909C12.7043 14.0909 14.091 12.7044 14.091 11C14.091 9.29553 12.7044 7.90891 11 7.90891C9.29557 7.90891 7.90898 9.29553 7.90898 11Z" fill="#60a5fa"/>
</mask>
<g mask="url(#mask0)">
</g>
</svg>

<?xml version="1.0" encoding="utf-8"?>
<!-- Generator: Adobe Illustrator 28.0.0, SVG Export Plug-In . SVG Version: 6.00 Build 0)  -->
<svg version="1.1" id="Capa_1" xmlns="http://www.w3.org/2000/svg" xmlns:xlink="http://www.w3.org/1999/xlink" x="0px" y="0px"
	 viewBox="0 0 22 22" style="enable-background:new 0 0 22 22;" xml:space="preserve">
<style type="text/css">
	.st0{fill-rule:evenodd;clip-rule:evenodd;fill:#94A3B8;}
	.st1{fill-rule:evenodd;clip-rule:evenodd;fill:#60A5FA;filter:url(#Adobe_OpacityMaskFilter);}
	.st2{mask:url(#mask0_00000013152225796473841820000016457604275749926571_);}
</style>
<path class="st0" d="M7,2H15c2.7,0,5,2.2,5,5V15c0,2.7-2.2,5-5,5H7c-2.7,0-5-2.2-5-5V7C2,4.2,4.2,2,7,2z M15,18.4
	c1.9,0,3.4-1.5,3.4-3.4h0V7c0-1.9-1.5-3.4-3.4-3.4H7C5.1,3.6,3.6,5.1,3.6,7V15c0,1.9,1.5,3.4,3.4,3.4H15z M6.3,11
	c0-2.6,2.1-4.7,4.7-4.7s4.7,2.1,4.7,4.7c0,2.6-2.1,4.7-4.7,4.7S6.3,13.6,6.3,11z M7.9,11c0,1.7,1.4,3.1,3.1,3.1
	c1.7,0,3.1-1.4,3.1-3.1c0-1.7-1.4-3.1-3.1-3.1C9.3,7.9,7.9,9.3,7.9,11z"/>
<defs>
	<filter id="Adobe_OpacityMaskFilter" filterUnits="userSpaceOnUse">
		<feColorMatrix  type="matrix" values="1 0 0 0 0  0 1 0 0 0  0 0 1 0 0  0 0 0 1 0"/>
	</filter>
</defs>
<mask maskUnits="userSpaceOnUse" id="mask0_00000013152225796473841820000016457604275749926571_">
	<path class="st1" d="M7,2H15c2.7,0,5,2.2,5,5V15c0,2.7-2.2,5-5,5H7c-2.7,0-5-2.2-5-5V7C2,4.2,4.2,2,7,2z M15,18.4
		c1.9,0,3.4-1.5,3.4-3.4h0V7c0-1.9-1.5-3.4-3.4-3.4H7C5.1,3.6,3.6,5.1,3.6,7V15c0,1.9,1.5,3.4,3.4,3.4H15z M6.3,11
		c0-2.6,2.1-4.7,4.7-4.7s4.7,2.1,4.7,4.7c0,2.6-2.1,4.7-4.7,4.7S6.3,13.6,6.3,11z M7.9,11c0,1.7,1.4,3.1,3.1,3.1
		c1.7,0,3.1-1.4,3.1-3.1c0-1.7-1.4-3.1-3.1-3.1C9.3,7.9,7.9,9.3,7.9,11z"/>
</mask>
<g class="st2">
</g>
</svg>
